src/assets/svg/Github.svg

<svg width="48" height="48" viewBox="0 0 48 48" fill="none" xmlns="http://www.w3.org/2000/svg">
<path d="M24.0432 0.179932C10.8147 0.179932 0.087677 11.0878 0.087677 24.5445C0.087677 35.3096 6.95168 44.4426 16.47 47.6643C17.6672 47.8899 18.1067 47.1358 18.1067 46.4922C18.1067 45.9112 18.0845 43.9919 18.0742 41.956C11.4097 43.4299 10.0034 39.0812 10.0034 39.0812C8.91373 36.265 7.34361 35.5161 7.34361 35.5161C5.17012 34.0039 7.50745 34.035 7.50745 34.035C9.913 34.2065 11.1796 36.5458 11.1796 36.5458C13.3162 40.2707 16.7837 39.1938 18.1508 38.5712C18.3658 36.9969 18.9866 35.9212 19.6717 35.3132C14.3508 34.6971 8.75743 32.6079 8.75743 23.2719C8.75743 20.6118 9.69323 18.4383 11.2257 16.732C10.9769 16.1179 10.157 13.6402 11.4577 10.2841C11.4577 10.2841 13.4694 9.62928 18.0472 12.7816C19.9581 12.2418 22.0074 11.971 24.0432 11.9618C26.0791 11.971 28.13 12.2418 30.0444 12.7816C34.6167 9.62928 36.6256 10.2841 36.6256 10.2841C37.9295 13.6402 37.1092 16.1179 36.8604 16.732C38.3964 18.4383 39.3259 20.6118 39.3259 23.2719C39.3259 32.6301 33.7218 34.6906 28.3874 35.2938C29.2467 36.0499 30.0123 37.5327 30.0123 39.8059C30.0123 43.0655 29.9845 45.6893 29.9845 46.4922C29.9845 47.1406 30.4157 47.9003 31.63 47.6611C41.1431 44.4357 47.9984 35.3059 47.9984 24.5445C47.9984 11.0878 37.273 0.179932 24.0432 0.179932Z" fill="black"/>
<path d="M9.16088 35.1623C9.10812 35.2838 8.92088 35.3197 8.7503 35.2366C8.57655 35.1571 8.47896 34.9921 8.53529 34.8706C8.58686 34.746 8.7745 34.7117 8.94785 34.7944C9.122 34.8743 9.22118 35.0409 9.16088 35.1623Z" fill="black"/>
<path d="M10.1312 36.263C10.0169 36.3707 9.79358 36.3207 9.64205 36.1504C9.48535 35.9806 9.456 35.7534 9.57183 35.6441C9.68965 35.5363 9.90624 35.5868 10.0633 35.7566C10.22 35.9285 10.2506 36.1541 10.1312 36.263Z" fill="black"/>
<path d="M11.0757 37.6662C10.9289 37.7699 10.6889 37.6726 10.5406 37.456C10.3938 37.2393 10.3938 36.9795 10.5437 36.8754C10.6925 36.7713 10.9289 36.8649 11.0793 37.0799C11.2257 37.2998 11.2257 37.5601 11.0757 37.6662Z" fill="black"/>
<path d="M12.3697 39.0219C12.2384 39.1692 11.9588 39.1297 11.7541 38.9287C11.5446 38.7322 11.4863 38.4534 11.618 38.3062C11.7509 38.1585 12.0321 38.2001 12.2384 38.3994C12.4463 38.5955 12.5098 38.8763 12.3697 39.0219Z" fill="black"/>
<path d="M14.1549 39.809C14.0969 39.9999 13.8276 40.0866 13.5562 40.0055C13.2853 39.922 13.108 39.6985 13.1627 39.5056C13.2191 39.3136 13.4896 39.2232 13.7629 39.3099C14.0335 39.393 14.2112 39.6149 14.1549 39.809Z" fill="black"/>
<path d="M16.1153 39.9552C16.122 40.1561 15.892 40.3228 15.6071 40.326C15.3207 40.3329 15.089 40.1703 15.0859 39.9726C15.0859 39.7696 15.3108 39.6046 15.5972 39.5998C15.882 39.5941 16.1153 39.7555 16.1153 39.9552Z" fill="black"/>
<path d="M17.9397 39.6392C17.9738 39.8353 17.7759 40.0366 17.493 40.0899C17.2149 40.1419 16.9575 40.0209 16.9222 39.8264C16.8877 39.6255 17.0892 39.4241 17.3669 39.3721C17.6501 39.3221 17.9036 39.4399 17.9397 39.6392Z" fill="black"/>
</svg>

<svg width="48" height="48" fill="none" xmlns="http://www.w3.org/2000/svg"><path d="M24.043.18C10.815.18.088 11.088.088 24.544c0 10.766 6.864 19.899 16.382 23.12 1.197.226 1.637-.528 1.637-1.172 0-.58-.023-2.5-.033-4.536-6.664 1.474-8.07-2.875-8.07-2.875-1.09-2.816-2.66-3.565-2.66-3.565-2.174-1.512.163-1.481.163-1.481 2.406.172 3.673 2.51 3.673 2.51 2.136 3.726 5.604 2.649 6.97 2.026.216-1.574.837-2.65 1.522-3.258-5.321-.616-10.915-2.705-10.915-12.041 0-2.66.936-4.834 2.469-6.54-.25-.614-1.069-3.092.232-6.448 0 0 2.011-.655 6.59 2.498 1.91-.54 3.96-.811 5.995-.82 2.036.009 4.087.28 6.001.82 4.573-3.153 6.582-2.498 6.582-2.498 1.303 3.356.483 5.834.234 6.448 1.536 1.706 2.466 3.88 2.466 6.54 0 9.358-5.604 11.419-10.939 12.022.86.756 1.625 2.239 1.625 4.512 0 3.26-.027 5.883-.027 6.686 0 .649.43 1.408 1.645 1.17 9.513-3.226 16.368-12.356 16.368-23.117C47.998 11.087 37.273.18 24.043.18z" fill="#000"/><path d="M9.16 35.162c-.052.122-.24.158-.41.075-.173-.08-.271-.245-.215-.366.052-.125.24-.16.413-.077.174.08.273.247.213.368zM10.131 36.263c-.114.108-.337.058-.489-.113-.157-.17-.186-.397-.07-.506.118-.108.334-.057.491.113.157.172.188.397.068.506zM11.076 37.666c-.147.104-.387.007-.535-.21-.147-.217-.147-.477.003-.58.149-.105.385-.011.535.204.147.22.147.48-.003.586zM12.37 39.022c-.132.147-.411.108-.616-.093-.21-.197-.268-.476-.136-.623.133-.148.414-.106.62.093.208.197.272.477.132.623zM14.155 39.809c-.058.19-.327.278-.599.197-.27-.084-.448-.307-.393-.5.056-.192.327-.283.6-.196.27.083.448.305.392.499zM16.115 39.955c.007.201-.223.368-.508.371-.286.007-.518-.156-.521-.353 0-.203.225-.368.511-.373.285-.006.518.155.518.355zM17.94 39.64c.034.195-.164.397-.447.45-.278.052-.535-.07-.57-.264-.035-.2.166-.402.444-.454.283-.05.537.068.573.267z" fill="#000"/></svg>
